;FLAVOR:Marlin
;TIME:8303
;Filament used: 7.96972m
;Layer height: 0.28
;MINX:50.806
;MINY:62.983
;MINZ:0.28
;MAXX:176.609
;MAXY:173.869
;MAXZ:12.04
;Generated with Cura_SteamEngine 5.4.0
M140 S65
M105
M190 S65
M104 S210
M105
M109 S210
M82 ;absolute extrusion mode
M201 X500.00 Y500.00 Z100.00 E5000.00 ;Setup machine max acceleration
M203 X500.00 Y500.00 Z10.00 E50.00 ;Setup machine max feedrate
M204 P500.00 R1000.00 T500.00 ;Setup Print/Retract/Travel acceleration
M205 X8.00 Y8.00 Z0.40 E5.00 ;Setup Jerk
M220 S100 ;Reset Feedrate
M221 S100 ;Reset Flowrate

G28 ;Home

G92 E0 ;Reset Extruder
G1 Z2.0 F3000 ;Move Z Axis up
G1 X10.1 Y20 Z0.28 F5000.0 ;Move to start position
G1 X10.1 Y200.0 Z0.28 F1500.0 E15 ;Draw the first line
G1 X10.4 Y200.0 Z0.28 F5000.0 ;Move to side a little
G1 X10.4 Y20 Z0.28 F1500.0 E30 ;Draw the second line
G92 E0 ;Reset Extruder
G1 Z2.0 F3000 ;Move Z Axis up

G92 E0
G92 E0
G1 F1500 E-6.5
;LAYER_COUNT:43
;LAYER:0
M107
G0 F6000 X79.917 Y73.389 Z0.28
;TYPE:SKIRT
G1 F1500 E0
G1 F1200 X80.293 Y73 E0.02519
G1 X81.116 Y72.191 E0.07893
G1 X81.499 Y71.832 E0.10337
G1 X82.375 Y71.054 E0.15793
G1 X83.328 Y70.265 E0.21554
G1 X83.691 Y69.981 E0.237
G1 X84.629 Y69.282 E0.29147
G1 X85.185 Y68.891 E0.32312
G1 X86.383 Y68.105 E0.38984
G1 X86.845 Y67.819 E0.41514
G1 X87.838 Y67.243 E0.46859
G1 X88.283 Y66.998 E0.49225
G1 X89.266 Y66.487 E0.54384
G1 X89.752 Y66.251 E0.56899
G1 X90.814 Y65.767 E0.62334
G1 X91.287 Y65.565 E0.64729
G1 X92.339 Y65.146 E0.70002
G1 X92.783 Y64.981 E0.72207
G1 X93.533 Y64.721 E0.75903
G1 X94.155 Y64.519 E0.78949
G1 X95.126 Y64.23 E0.83666
G1 X95.732 Y64.066 E0.86589
G1 X97.098 Y63.742 E0.93126
G1 X97.557 Y63.645 E0.95311
G1 X98.381 Y63.491 E0.99214
G1 X98.999 Y63.387 E1.02132
G1 X100.103 Y63.234 E1.07322
G1 X100.547 Y63.183 E1.09403
G1 X101.65 Y63.08 E1.14562
G1 X102.182 Y63.043 E1.17045
G1 X103.35 Y62.994 E1.22488
G1 X103.963 Y62.983 E1.25343
G1 X105.417 Y63.007 E1.32114
G1 X106.679 Y63.076 E1.38
G1 X107.344 Y63.134 E1.41108
G1 X108.737 Y63.296 E1.47638
G1 X109.27 Y63.374 E1.50146
G1 X110.431 Y63.574 E1.55632
G1 X110.961 Y63.679 E1.58148
G1 X112.062 Y63.926 E1.63402
G1 X112.565 Y64.053 E1.65818
G1 X113.69 Y64.364 E1.71253
G1 X114.194 Y64.518 E1.73707
G1 X115.292 Y64.884 E1.79096
G1 X115.782 Y65.06 E1.8152
G1 X116.824 Y65.465 E1.86726
G1 X117.313 Y65.669 E1.89193
G1 X118.366 Y66.139 E1.94563
G1 X118.843 Y66.366 E1.97022
G1 X119.842 Y66.874 E2.02241
G1 X120.298 Y67.121 E2.04656
G1 X121.272 Y67.676 E2.09876
G1 X122.413 Y68.384 E2.16128
G1 X122.806 Y68.643 E2.1832
G1 X123.72 Y69.278 E2.23502
G1 X124.139 Y69.583 E2.25916
G1 X125.043 Y70.278 E2.31225
G1 X125.472 Y70.626 E2.33797
G1 X126.374 Y71.397 E2.39323
G1 X129.175 Y73.928 E2.56901
G1 X131.091 Y75.559 E2.68618
G1 X133.049 Y77.134 E2.80319
G1 X135.081 Y78.673 E2.92188
G1 X137.093 Y80.113 E3.03709
G1 X139.179 Y81.515 E3.15412
G1 X141.342 Y82.884 E3.27332
G1 X143.485 Y84.155 E3.38934
G1 X145.684 Y85.377 E3.50648
G1 X147.915 Y86.537 E3.62357
G1 X150.2 Y87.642 E3.74175
G1 X152.49 Y88.671 E3.85866
G1 X154.92 Y89.681 E3.98119
G1 X156.185 Y90.196 E4.04479
G1 X156.931 Y90.522 E4.0827
G1 X157.347 Y90.716 E4.10407
G1 X158.391 Y91.228 E4.15822
G1 X158.862 Y91.474 E4.18296
G1 X159.869 Y92.033 E4.23659
G1 X160.332 Y92.304 E4.26157
G1 X161.316 Y92.917 E4.31555
G1 X161.756 Y93.206 E4.34007
G1 X162.633 Y93.815 E4.38978
G1 X163.228 Y94.251 E4.42413
G1 X164.371 Y95.15 E4.49184
G1 X164.757 Y95.472 E4.51525
G1 X165.608 Y96.215 E4.56786
G1 X165.959 Y96.538 E4.59007
G1 X166.876 Y97.429 E4.6496
G1 X167.685 Y98.27 E4.70394
G1 X168.048 Y98.668 E4.72902
G1 X168.771 Y99.5 E4.78035
G1 X169.185 Y100 E4.81058
G1 X170.082 Y101.169 E4.87919
G1 X170.377 Y101.577 E4.90263
G1 X171.041 Y102.539 E4.95706
G1 X171.335 Y102.991 E4.98217
G1 X171.939 Y103.969 E5.03569
G1 X172.212 Y104.439 E5.061
G1 X172.749 Y105.421 E5.11312
G1 X173.311 Y106.534 E5.17118
G1 X173.511 Y106.959 E5.19305
G1 X173.988 Y108.039 E5.24802
G1 X174.194 Y108.538 E5.27316
G1 X174.584 Y109.558 E5.32401
G1 X174.918 Y110.517 E5.3713
G1 X175.246 Y111.566 E5.42247
G1 X175.39 Y112.075 E5.44711
G1 X175.683 Y113.202 E5.50133
G1 X175.8 Y113.706 E5.52542
G1 X176.032 Y114.825 E5.57863
G1 X176.128 Y115.365 E5.60417
G1 X176.303 Y116.495 E5.65742
G1 X176.368 Y116.999 E5.68108
G1 X176.486 Y118.123 E5.73371
G1 X176.527 Y118.659 E5.75874
G1 X176.59 Y119.809 E5.81237
G1 X176.605 Y120.344 E5.83729
G1 X176.609 Y121.485 E5.89042
G1 X176.598 Y122.009 E5.91482
G1 X176.544 Y123.158 E5.96838
G1 X176.507 Y123.68 E5.99275
G1 X176.4 Y124.796 E6.04496
G1 X176.231 Y126.084 E6.10544
G1 X176.155 Y126.546 E6.12725
G1 X175.939 Y127.714 E6.18256
G1 X175.828 Y128.243 E6.20772
G1 X175.584 Y129.273 E6.25701
G1 X175.413 Y129.919 E6.28813
G1 X174.989 Y131.334 E6.35691
G1 X174.842 Y131.781 E6.37882
G1 X174.495 Y132.761 E6.42723
G1 X174.234 Y133.426 E6.4605
G1 X173.797 Y134.472 E6.51328
G1 X173.588 Y134.941 E6.53719
G1 X173.117 Y135.933 E6.58833
G1 X172.876 Y136.407 E6.61309
G1 X172.318 Y137.442 E6.66784
G1 X172.045 Y137.921 E6.69351
G1 X171.454 Y138.893 E6.74648
G1 X170.768 Y139.94 E6.80477
G1 X170.492 Y140.335 E6.8272
G1 X169.795 Y141.287 E6.88214
G1 X169.481 Y141.696 E6.90615
G1 X168.816 Y142.517 E6.95535
G1 X168.469 Y142.924 E6.98026
G1 X167.674 Y143.813 E7.03579
G1 X167.25 Y144.265 E7.06465
G1 X166.17 Y145.332 E7.13534
G1 X165.278 Y146.15 E7.1917
G1 X164.931 Y146.451 E7.21309
G1 X164.007 Y147.217 E7.26897
G1 X163.581 Y147.551 E7.29418
G1 X162.708 Y148.201 E7.34486
G1 X162.097 Y148.631 E7.37965
G1 X160.913 Y149.408 E7.44559
G1 X160.465 Y149.686 E7.47014
G1 X159.488 Y150.255 E7.52279
G1 X159.025 Y150.508 E7.54736
G1 X158.002 Y151.037 E7.60099
G1 X157.518 Y151.274 E7.62608
G1 X156.477 Y151.748 E7.67934
G1 X155.316 Y152.227 E7.73782
G1 X154.888 Y152.39 E7.75915
G1 X153.772 Y152.786 E7.81429
G1 X153.265 Y152.952 E7.83913
G1 X152.194 Y153.273 E7.89119
G1 X151.687 Y153.41 E7.91565
G1 X150.59 Y153.681 E7.96826
G1 X149.95 Y153.823 E7.99879
G1 X148.532 Y154.085 E8.06593
G1 X147.993 Y154.17 E8.09134
G1 X146.836 Y154.319 E8.14566
G1 X146.298 Y154.374 E8.17084
G1 X142.827 Y154.644 E8.33296
G1 X140.29 Y154.907 E8.45172
G1 X137.764 Y155.241 E8.57037
G1 X135.315 Y155.636 E8.68588
G1 X132.875 Y156.102 E8.80155
G1 X130.342 Y156.66 E8.92232
G1 X127.962 Y157.253 E9.03653
G1 X125.521 Y157.937 E9.15457
G1 X123.083 Y158.695 E9.27346
G1 X120.764 Y159.49 E9.38761
G1 X118.362 Y160.389 E9.50703
G1 X116.019 Y161.341 E9.6248
G1 X113.736 Y162.346 E9.74095
G1 X111.478 Y163.416 E9.8573
G1 X109.215 Y164.57 E9.97558
G1 X107.028 Y165.764 E10.09161
G1 X104.835 Y167.043 E10.20982
G1 X101.905 Y168.866 E10.3705
G1 X100.75 Y169.549 E10.43299
G1 X100.181 Y169.859 E10.46316
G1 X99.198 Y170.37 E10.51475
G1 X98.779 Y170.576 E10.53649
G1 X98.041 Y170.918 E10.57436
G1 X97.183 Y171.289 E10.61789
G1 X96.13 Y171.708 E10.67066
G1 X95.687 Y171.872 E10.69266
G1 X94.69 Y172.216 E10.74177
G1 X94.027 Y172.423 E10.77411
G1 X92.96 Y172.728 E10.82578
G1 X92.499 Y172.849 E10.84797
G1 X91.216 Y173.146 E10.9093
G1 X90.156 Y173.351 E10.95957
G1 X89.468 Y173.469 E10.99207
G1 X88.008 Y173.662 E11.06065
G1 X87.485 Y173.716 E11.08513
G1 X86.351 Y173.804 E11.13809
G1 X85.835 Y173.833 E11.16216
G1 X84.714 Y173.866 E11.21438
G1 X84.186 Y173.869 E11.23897
G1 X83.053 Y173.846 E11.29173
G1 X81.789 Y173.777 E11.35068
G1 X81.333 Y173.738 E11.37199
G1 X80.145 Y173.611 E11.42762
G1 X79.608 Y173.539 E11.45285
G1 X78.529 Y173.368 E11.50372
G1 X77.822 Y173.239 E11.53719
G1 X76.365 Y172.917 E11.60667
G1 X75.842 Y172.784 E11.63179
G1 X74.746 Y172.479 E11.68477
G1 X74.25 Y172.328 E11.70891
G1 X73.199 Y171.978 E11.76049
G1 X72.767 Y171.825 E11.78183
G1 X71.992 Y171.528 E11.82048
G1 X70.55 Y170.918 E11.89338
G1 X70.069 Y170.697 E11.91803
G1 X68.707 Y170.024 E11.98877
G1 X68.174 Y169.735 E12.01701
G1 X67.209 Y169.184 E12.06875
G1 X66.743 Y168.902 E12.09411
G1 X65.759 Y168.273 E12.14849
G1 X65.376 Y168.016 E12.16997
G1 X64.693 Y167.536 E12.20884
G1 X64.33 Y167.269 E12.22982
G1 X63.201 Y166.395 E12.29631
G1 X62.654 Y165.939 E12.32947
G1 X61.795 Y165.187 E12.38263
G1 X61.408 Y164.83 E12.40714
G1 X60.601 Y164.048 E12.45947
G1 X60.283 Y163.727 E12.48051
G1 X59.71 Y163.124 E12.51924
G1 X59.395 Y162.776 E12.5411
G1 X58.63 Y161.895 E12.59543
G1 X58.297 Y161.493 E12.61974
G1 X57.622 Y160.634 E12.67061
G1 X57.291 Y160.191 E12.69636
G1 X56.616 Y159.235 E12.75085
G1 X56.321 Y158.795 E12.77552
G1 X55.719 Y157.847 E12.82781
G1 X55.447 Y157.393 E12.85245
G1 X54.876 Y156.387 E12.90632
G1 X54.628 Y155.921 E12.9309
G1 X54.125 Y154.923 E12.98294
G1 X53.9 Y154.446 E13.00749
G1 X53.437 Y153.398 E13.06084
G1 X53.238 Y152.914 E13.08521
G1 X52.707 Y151.517 E13.1548
G1 X52.488 Y150.868 E13.1867
G1 X52.163 Y149.828 E13.23743
G1 X52.024 Y149.338 E13.26115
G1 X51.734 Y148.22 E13.31493
G1 X51.609 Y147.691 E13.34024
G1 X51.384 Y146.599 E13.39216
G1 X51.291 Y146.072 E13.41708
G1 X51.108 Y144.89 E13.47277
G1 X51.041 Y144.369 E13.49723
G1 X50.928 Y143.278 E13.5483
G1 X50.889 Y142.758 E13.57259
G1 X50.825 Y141.587 E13.62719
G1 X50.81 Y141.054 E13.65202
G1 X50.806 Y139.929 E13.70441
G1 X50.817 Y139.404 E13.72886
G1 X50.871 Y138.255 E13.78242
G1 X50.908 Y137.733 E13.80679
G1 X51.015 Y136.617 E13.85899
G1 X51.184 Y135.329 E13.91948
G1 X51.26 Y134.867 E13.94128
G1 X51.476 Y133.699 E13.99659
G1 X51.582 Y133.196 E14.02053
G1 X51.825 Y132.16 E14.07008
G1 X51.969 Y131.611 E14.09651
G1 X52.308 Y130.453 E14.15269
G1 X52.461 Y129.972 E14.17619
G1 X52.815 Y128.942 E14.22691
G1 X53.001 Y128.447 E14.25153
G1 X53.451 Y127.328 E14.30769
G1 X53.66 Y126.843 E14.33228
G1 X54.117 Y125.848 E14.38327
G1 X54.433 Y125.207 E14.41654
G1 X55.09 Y123.979 E14.4814
G1 X55.332 Y123.554 E14.50417
G1 X55.98 Y122.489 E14.56222
G1 X56.608 Y121.532 E14.61552
G1 X58.522 Y118.786 E14.77138
G1 X59.913 Y116.667 E14.88941
G1 X61.235 Y114.527 E15.00654
G1 X62.484 Y112.366 E15.12276
G1 X63.683 Y110.152 E15.24
G1 X64.823 Y107.896 E15.3577
G1 X65.882 Y105.644 E15.47358
G1 X66.911 Y103.287 E15.59333
G1 X67.845 Y100.97 E15.70966
G1 X68.72 Y98.609 E15.8269
G1 X69.517 Y96.253 E15.94271
G1 X70.262 Y93.831 E16.06071
G1 X70.939 Y91.386 E16.17884
G1 X71.371 Y89.623 E16.26336
G1 X71.423 Y89.444 E16.27204
G1 X71.727 Y88.19 E16.33212
G1 X71.851 Y87.724 E16.35458
G1 X72.196 Y86.539 E16.41205
G1 X72.357 Y86.032 E16.43682
G1 X72.701 Y85.038 E16.4858
G1 X72.88 Y84.557 E16.50969
G1 X73.308 Y83.488 E16.56331
G1 X73.59 Y82.832 E16.59656
G1 X74.173 Y81.596 E16.6602
G1 X74.416 Y81.118 E16.68516
G1 X74.991 Y80.051 E16.7416
G1 X75.262 Y79.578 E16.76699
G1 X75.844 Y78.619 E16.81922
G1 X76.085 Y78.24 E16.84014
G1 X76.543 Y77.554 E16.87854
G1 X76.808 Y77.175 E16.90008
G1 X77.515 Y76.209 E16.95582
G1 X77.834 Y75.794 E16.98019
G1 X78.493 Y74.982 E17.02889
G1 X78.962 Y74.434 E17.06247
G1 X79.917 Y73.389 E17.12839
G0 F6000 X80.204 Y73.667
G1 F1200 X80.574 Y73.285 E17.15316
G1 X81.389 Y72.483 E17.2064
G1 X81.765 Y72.131 E17.23038
G1 X82.63 Y71.362 E17.28427
G1 X83.575 Y70.58 E17.34139
G1 X83.93 Y70.302 E17.36239
G1 X84.859 Y69.609 E17.41635
G1 X85.404 Y69.225 E17.4474
G1 X86.593 Y68.445 E17.51361
G1 X87.046 Y68.165 E17.53841
G1 X88.031 Y67.593 E17.59145
G1 X88.467 Y67.353 E17.61462
G1 X89.441 Y66.847 E17.66573
G1 X89.918 Y66.615 E17.69043
G1 X90.971 Y66.135 E17.74432
G1 X91.435 Y65.937 E17.76781
G1 X92.479 Y65.521 E17.82014
G1 X92.914 Y65.359 E17.84175
G1 X93.657 Y65.101 E17.87838
G1 X94.269 Y64.902 E17.90834
G1 X95.231 Y64.616 E17.95507
G1 X95.824 Y64.455 E17.98369
G1 X97.181 Y64.133 E18.04863
G1 X97.631 Y64.038 E18.07004
G1 X98.447 Y63.885 E18.1087
G1 X99.054 Y63.783 E18.13736
G1 X100.149 Y63.631 E18.18884
G1 X100.584 Y63.581 E18.20923
G1 X101.678 Y63.479 E18.26039
G1 X102.199 Y63.443 E18.28471
G1 X103.357 Y63.394 E18.33868
G1 X103.957 Y63.383 E18.36662
G1 X105.395 Y63.406 E18.43359
G1 X106.645 Y63.475 E18.49188
G1 X107.298 Y63.531 E18.5224
G1 X108.679 Y63.692 E18.58714
G1 X109.202 Y63.768 E18.61175
G1 X110.353 Y63.966 E18.66613
G1 X110.873 Y64.069 E18.69082
G1 X111.964 Y64.314 E18.74288
G1 X112.458 Y64.439 E18.76661
G1 X113.573 Y64.747 E18.82048
G1 X114.077 Y64.901 E18.84502
G1 X115.157 Y65.261 E18.89803
G1 X115.637 Y65.433 E18.92177
G1 X116.67 Y65.834 E18.97337
G1 X117.15 Y66.034 E18.99758
G1 X118.194 Y66.5 E19.05081
G1 X118.662 Y66.723 E19.07495
G1 X119.652 Y67.226 E19.12666
G1 X120.1 Y67.468 E19.15037
G1 X121.061 Y68.016 E19.20188
G1 X122.193 Y68.718 E19.26391
G1 X122.578 Y68.972 E19.28538
G1 X123.485 Y69.602 E19.33681
G1 X123.895 Y69.9 E19.36041
G1 X124.791 Y70.588 E19.41301
G1 X125.212 Y70.93 E19.43827
G1 X126.106 Y71.694 E19.49303
G1 X128.916 Y74.233 E19.66937
G1 X130.84 Y75.871 E19.78703
G1 X132.807 Y77.453 E19.90457
G1 X134.839 Y78.992 E20.02326
G1 X136.87 Y80.445 E20.13955
G1 X138.965 Y81.853 E20.25708
G1 X141.13 Y83.223 E20.37638
G1 X143.291 Y84.505 E20.49338
G1 X145.49 Y85.727 E20.61053
G1 X147.741 Y86.897 E20.72865
G1 X150.036 Y88.007 E20.84736
G1 X152.326 Y89.036 E20.96426
G1 X154.766 Y90.05 E21.0873
G1 X156.025 Y90.563 E21.15061
G1 X156.762 Y90.885 E21.18806
G1 X157.171 Y91.075 E21.20906
G1 X158.206 Y91.583 E21.26274
G1 X158.668 Y91.824 E21.28701
G1 X159.667 Y92.378 E21.3402
G1 X160.121 Y92.644 E21.3647
G1 X161.096 Y93.251 E21.41818
G1 X161.528 Y93.535 E21.44225
G1 X162.397 Y94.138 E21.4915
G1 X162.981 Y94.565 E21.52519
G1 X164.115 Y95.457 E21.59237
G1 X164.494 Y95.773 E21.61535
G1 X165.337 Y96.51 E21.66749
G1 X165.68 Y96.825 E21.68917
G1 X166.588 Y97.706 E21.74808
G1 X167.39 Y98.54 E21.80196
G1 X167.746 Y98.93 E21.82655
G1 X168.463 Y99.755 E21.87745
G1 X168.868 Y100.244 E21.90701
G1 X169.758 Y101.403 E21.97506
G1 X170.048 Y101.804 E21.9981
G1 X170.706 Y102.758 E22.05206
G1 X170.995 Y103.201 E22.07669
G1 X171.593 Y104.17 E22.12971
G1 X171.861 Y104.631 E22.15454
G1 X172.392 Y105.601 E22.20603
G1 X172.949 Y106.704 E22.26357
G1 X173.145 Y107.121 E22.28503
G1 X173.618 Y108.191 E22.3395
G1 X173.82 Y108.681 E22.36418
G1 X174.206 Y109.69 E22.41449
G1 X174.536 Y110.637 E22.46118
G1 X174.861 Y111.675 E22.51183
G1 X175.003 Y112.176 E22.53608
G1 X175.293 Y113.293 E22.58981
G1 X175.408 Y113.787 E22.61343
G1 X175.638 Y114.895 E22.66612
G1 X175.733 Y115.426 E22.69124
G1 X175.906 Y116.546 E22.74401
G1 X175.97 Y117.041 E22.76725
G1 X176.087 Y118.154 E22.81937
G1 X176.128 Y118.681 E22.84398
G1 X176.19 Y119.82 E22.89709
G1 X176.205 Y120.345 E22.92155
G1 X176.209 Y121.476 E22.97422
G1 X176.198 Y121.99 E22.99815
G1 X176.145 Y123.13 E23.0513
G1 X176.109 Y123.642 E23.07519
G1 X176.003 Y124.749 E23.12698
G1 X175.951 Y125.191 E23.1477
G1 X175.836 Y126.02 E23.18667
G1 X175.762 Y126.473 E23.20804
G1 X175.548 Y127.632 E23.26293
G1 X175.439 Y128.151 E23.28762
G1 X175.197 Y129.171 E23.33643
G1 X175.03 Y129.804 E23.36692
G1 X174.609 Y131.209 E23.43521
G1 X174.465 Y131.647 E23.45668
G1 X174.122 Y132.615 E23.5045
G1 X173.865 Y133.272 E23.53735
G1 X173.432 Y134.309 E23.58968
G1 X173.227 Y134.769 E23.61313
G1 X172.76 Y135.752 E23.66381
G1 X172.524 Y136.217 E23.68809
G1 X171.971 Y137.244 E23.7424
G1 X171.703 Y137.713 E23.76755
G1 X171.119 Y138.674 E23.81992
G1 X170.44 Y139.711 E23.87763
G1 X170.169 Y140.099 E23.89967
G1 X169.478 Y141.043 E23.95415
G1 X169.17 Y141.444 E23.97769
G1 X168.512 Y142.257 E24.02639
G1 X168.171 Y142.657 E24.05087
G1 X167.382 Y143.539 E24.10597
G1 X166.958 Y143.991 E24.13483
G1 X165.9 Y145.037 E24.20411
G1 X165.016 Y145.848 E24.25997
G1 X164.676 Y146.143 E24.28093
G1 X163.76 Y146.902 E24.33632
G1 X163.342 Y147.23 E24.36106
G1 X162.478 Y147.874 E24.41124
G1 X161.878 Y148.297 E24.44542
G1 X160.703 Y149.068 E24.51086
G1 X160.263 Y149.34 E24.53495
G1 X159.296 Y149.904 E24.58708
G1 X158.841 Y150.153 E24.61123
G1 X157.826 Y150.678 E24.66444
G1 X157.352 Y150.91 E24.68901
G1 X156.324 Y151.378 E24.74161
G1 X155.174 Y151.853 E24.79954
G1 X154.754 Y152.013 E24.82047
G1 X153.648 Y152.406 E24.87513
G1 X153.15 Y152.569 E24.89953
G1 X152.09 Y152.887 E24.95106
G1 X151.591 Y153.022 E24.97513
G1 X150.503 Y153.29 E25.0273
G1 X149.863 Y153.432 E25.05783
G1 X148.47 Y153.69 E25.1238
G1 X147.942 Y153.773 E25.14868
G1 X146.795 Y153.921 E25.20254
G1 X146.267 Y153.975 E25.22725
G1 X142.796 Y154.245 E25.38936
