;FLAVOR:Marlin
;TIME:14610
;Filament used: 13.6597m
;Layer height: 0.28
;MINX:27.986
;MINY:50.258
;MINZ:0.28
;MAXX:189.87
;MAXY:182.966
;MAXZ:15.96
;Generated with Cura_SteamEngine 5.4.0
M140 S65
M105
M190 S65
M104 S210
M105
M109 S210
M82 ;absolute extrusion mode
M201 X500.00 Y500.00 Z100.00 E5000.00 ;Setup machine max acceleration
M203 X500.00 Y500.00 Z10.00 E50.00 ;Setup machine max feedrate
M204 P500.00 R1000.00 T500.00 ;Setup Print/Retract/Travel acceleration
M205 X8.00 Y8.00 Z0.40 E5.00 ;Setup Jerk
M220 S100 ;Reset Feedrate
M221 S100 ;Reset Flowrate

G28 ;Home

G92 E0 ;Reset Extruder
G1 Z2.0 F3000 ;Move Z Axis up
G1 X10.1 Y20 Z0.28 F5000.0 ;Move to start position
G1 X10.1 Y200.0 Z0.28 F1500.0 E15 ;Draw the first line
G1 X10.4 Y200.0 Z0.28 F5000.0 ;Move to side a little
G1 X10.4 Y20 Z0.28 F1500.0 E30 ;Draw the second line
G92 E0 ;Reset Extruder
G1 Z2.0 F3000 ;Move Z Axis up

G92 E0
G92 E0
G1 F1500 E-6.5
;LAYER_COUNT:57
;LAYER:0
M107
G0 F6000 X38.961 Y74.665 Z0.28
;TYPE:SKIRT
G1 F1500 E0
G1 F1200 X40.201 Y74.078 E0.06388
G1 X40.823 Y73.829 E0.09508
G1 X41.704 Y73.521 E0.13854
G1 X42.33 Y73.352 E0.16873
G1 X43.148 Y73.158 E0.20788
G1 X44.34 Y72.947 E0.26424
G1 X47.458 Y72.571 E0.41048
G1 X49.945 Y72.195 E0.5276
G1 X52.425 Y71.75 E0.64493
G1 X54.874 Y71.237 E0.76144
G1 X57.364 Y70.642 E0.88065
G1 X59.735 Y70.003 E0.99499
G1 X62.168 Y69.273 E1.11327
G1 X64.565 Y68.479 E1.23085
G1 X66.927 Y67.623 E1.34783
G1 X69.285 Y66.69 E1.46591
G1 X71.604 Y65.699 E1.58334
G1 X73.877 Y64.647 E1.69997
G1 X76.114 Y63.536 E1.81627
G1 X78.352 Y62.344 E1.93434
G1 X80.562 Y61.086 E2.05275
G1 X82.675 Y59.801 E2.16791
G1 X84.789 Y58.433 E2.28516
G1 X86.901 Y56.98 E2.40453
G1 X88.934 Y55.497 E2.5217
G1 X90.886 Y53.997 E2.63633
G1 X91.63 Y53.465 E2.67892
G1 X92.091 Y53.162 E2.70461
G1 X92.844 Y52.707 E2.74558
G1 X93.64 Y52.277 E2.78771
G1 X94.497 Y51.869 E2.8319
G1 X95.342 Y51.518 E2.87451
G1 X96.238 Y51.195 E2.91886
G1 X97.079 Y50.941 E2.95977
G1 X97.985 Y50.715 E3.00325
G1 X98.897 Y50.533 E3.04655
G1 X99.816 Y50.4 E3.08979
G1 X100.726 Y50.313 E3.13235
G1 X101.668 Y50.27 E3.17626
G1 X102.603 Y50.259 E3.2198
G1 X161.361 Y50.258 E5.95582
G1 X162.623 Y50.279 E6.0146
G1 X163.517 Y50.328 E6.05629
G1 X164.389 Y50.421 E6.09712
G1 X165.332 Y50.566 E6.14155
G1 X166.095 Y50.722 E6.17781
G1 X166.44 Y50.802 E6.1943
G1 X167.014 Y50.955 E6.22196
G1 X167.472 Y51.09 E6.2442
G1 X168.001 Y51.261 E6.27008
G1 X168.806 Y51.557 E6.31002
G1 X169.19 Y51.713 E6.32932
G1 X169.745 Y51.957 E6.35755
G1 X170.539 Y52.347 E6.39874
G1 X171.352 Y52.796 E6.44199
G1 X172.122 Y53.271 E6.48412
G1 X172.871 Y53.786 E6.52644
G1 X173.596 Y54.338 E6.56887
G1 X174.318 Y54.948 E6.61288
G1 X174.602 Y55.207 E6.63078
G1 X175.25 Y55.839 E6.67293
G1 X175.63 Y56.239 E6.69862
G1 X176.206 Y56.897 E6.73934
G1 X176.483 Y57.237 E6.75976
G1 X176.833 Y57.689 E6.78638
G1 X177.338 Y58.399 E6.82695
G1 X177.848 Y59.195 E6.87097
G1 X178.057 Y59.552 E6.89023
G1 X178.466 Y60.304 E6.93009
G1 X178.705 Y60.786 E6.95515
G1 X179.197 Y61.846 E7.00956
G1 X180.321 Y64.182 E7.13027
G1 X181.468 Y66.407 E7.24683
G1 X182.689 Y68.62 E7.36452
G1 X183.971 Y70.788 E7.4818
G1 X185.307 Y72.918 E7.59888
G1 X186.712 Y75.016 E7.71646
G1 X187.857 Y76.639 E7.80894
G1 X188.391 Y77.477 E7.85521
G1 X188.809 Y78.277 E7.89724
G1 X189.209 Y79.242 E7.94589
G1 X189.498 Y80.172 E7.99123
G1 X189.704 Y81.123 E8.03654
G1 X189.819 Y82.019 E8.07861
G1 X189.855 Y82.639 E8.10752
G1 X189.87 Y83.296 E8.13813
G1 X189.869 Y171.382 E12.23978
G1 X189.857 Y172.143 E12.27522
G1 X189.799 Y173.116 E12.32061
G1 X189.653 Y174.079 E12.36596
G1 X189.422 Y175.026 E12.41135
G1 X189.109 Y175.948 E12.45669
G1 X188.717 Y176.839 E12.50201
G1 X188.265 Y177.661 E12.54569
G1 X187.703 Y178.499 E12.59268
G1 X187.113 Y179.229 E12.63638
G1 X186.41 Y179.955 E12.68344
G1 X185.674 Y180.591 E12.72874
G1 X184.884 Y181.161 E12.7741
G1 X184.108 Y181.624 E12.81617
G1 X183.168 Y182.077 E12.86476
G1 X182.255 Y182.419 E12.91016
G1 X181.317 Y182.678 E12.95547
G1 X180.351 Y182.855 E13.0012
G1 X179.215 Y182.951 E13.05429
G1 X178.54 Y182.966 E13.08572
G1 X90.404 Y182.965 E17.18971
G1 X89.666 Y182.952 E17.22408
G1 X88.694 Y182.891 E17.26942
G1 X87.731 Y182.744 E17.31479
G1 X86.785 Y182.512 E17.36014
G1 X85.856 Y182.195 E17.40585
G1 X84.85 Y181.741 E17.45724
G1 X82.63 Y180.591 E17.57366
G1 X80.377 Y179.496 E17.6903
G1 X78.091 Y178.465 E17.80707
G1 X75.739 Y177.482 E17.92577
G1 X73.386 Y176.577 E18.04316
G1 X71.042 Y175.752 E18.15887
G1 X68.621 Y174.975 E18.27727
G1 X66.219 Y174.277 E18.39374
G1 X63.787 Y173.646 E18.51074
G1 X61.306 Y173.076 E18.62927
G1 X58.856 Y172.585 E18.74562
G1 X56.397 Y172.165 E18.86178
G1 X53.84 Y171.802 E18.98204
G1 X51.705 Y171.552 E19.08213
G1 X51.085 Y171.468 E19.11127
G1 X50.197 Y171.307 E19.15329
G1 X48.9 Y170.931 E19.21617
G1 X48.035 Y170.615 E19.25905
G1 X47.403 Y170.363 E19.29073
G1 X46.474 Y169.939 E19.33828
G1 X45.39 Y169.308 E19.39669
G1 X44.682 Y168.829 E19.43649
G1 X44.082 Y168.4 E19.47084
G1 X43.312 Y167.794 E19.51646
G1 X42.539 Y167.059 E19.56613
G1 X41.929 Y166.399 E19.60798
G1 X41.356 Y165.735 E19.64882
G1 X40.796 Y165.026 E19.69089
G1 X40.073 Y163.893 E19.75347
G1 X39.641 Y163.094 E19.79577
G1 X39.302 Y162.422 E19.83082
G1 X38.899 Y161.522 E19.87673
G1 X38.514 Y160.357 E19.93387
G1 X38.303 Y159.543 E19.97302
G1 X38.126 Y158.772 E20.00986
G1 X37.96 Y157.884 E20.05192
G1 X37.797 Y156.746 E20.10545
G1 X37.39 Y154.169 E20.22694
G1 X36.927 Y151.689 E20.34441
G1 X36.395 Y149.229 E20.46161
G1 X35.802 Y146.817 E20.57726
G1 X35.119 Y144.352 E20.69637
G1 X34.387 Y141.971 E20.81236
G1 X33.572 Y139.563 E20.93073
G1 X32.695 Y137.193 E21.0484
G1 X31.769 Y134.897 E21.16368
G1 X30.76 Y132.582 E21.28127
G1 X30.421 Y131.871 E21.31795
G1 X30.301 Y131.589 E21.33222
G1 X29.305 Y129.435 E21.44273
G1 X28.834 Y128.22 E21.5034
G1 X28.639 Y127.605 E21.53344
G1 X28.389 Y126.657 E21.5791
G1 X28.325 Y126.358 E21.59333
G1 X28.182 Y125.535 E21.63223
G1 X28.08 Y124.775 E21.66794
G1 X27.995 Y123.814 E21.71286
G1 X27.986 Y123.125 E21.74495
G1 X27.998 Y122.567 E21.77093
G1 X28.069 Y121.536 E21.81906
G1 X28.154 Y120.822 E21.85254
G1 X28.338 Y119.746 E21.90337
G1 X28.997 Y116.785 E22.04462
G1 X29.483 Y114.302 E22.16243
G1 X29.893 Y111.831 E22.27906
G1 X30.231 Y109.371 E22.39469
G1 X30.508 Y106.822 E22.51408
G1 X30.712 Y104.287 E22.6325
G1 X30.837 Y101.831 E22.74701
G1 X30.896 Y99.296 E22.86508
G1 X30.884 Y96.756 E22.98336
G1 X30.799 Y94.275 E23.09895
G1 X30.641 Y91.707 E23.21875
G1 X30.516 Y90.222 E23.28815
G1 X30.482 Y89.657 E23.3145
G1 X30.463 Y89.02 E23.34418
G1 X30.479 Y88.032 E23.39019
G1 X30.516 Y87.444 E23.41762
G1 X30.692 Y86.077 E23.4818
G1 X30.802 Y85.516 E23.50842
G1 X30.981 Y84.733 E23.54582
G1 X31.201 Y83.965 E23.58302
G1 X31.542 Y83.016 E23.62998
G1 X31.777 Y82.446 E23.65869
G1 X32.05 Y81.842 E23.68955
G1 X32.199 Y81.535 E23.70544
G1 X32.644 Y80.717 E23.7488
G1 X32.933 Y80.264 E23.77382
G1 X33.407 Y79.557 E23.81346
G1 X34.138 Y78.594 E23.86975
G1 X34.552 Y78.112 E23.89934
G1 X35.21 Y77.411 E23.94411
G1 X35.64 Y77.015 E23.97133
G1 X36.19 Y76.535 E24.00532
G1 X37.091 Y75.831 E24.05856
G1 X37.538 Y75.52 E24.08392
G1 X38.479 Y74.932 E24.13559
G1 X38.961 Y74.665 E24.16124
G0 F6000 X39.155 Y75.015
G1 F1200 X40.349 Y74.449 E24.22277
G1 X40.955 Y74.207 E24.25316
G1 X41.836 Y73.899 E24.29661
G1 X42.423 Y73.741 E24.32492
G1 X43.218 Y73.552 E24.36297
G1 X44.388 Y73.344 E24.4183
G1 X47.518 Y72.967 E24.5651
G1 X50.005 Y72.591 E24.68223
G1 X52.506 Y72.142 E24.80054
G1 X54.956 Y71.629 E24.9171
G1 X57.457 Y71.031 E25.03684
G1 X59.849 Y70.386 E25.1522
G1 X62.294 Y69.653 E25.27106
G1 X64.691 Y68.859 E25.38863
G1 X67.074 Y67.995 E25.50666
G1 X69.441 Y67.059 E25.62519
G1 X71.761 Y66.067 E25.74268
G1 X74.045 Y65.01 E25.85987
G1 X76.301 Y63.89 E25.97715
G1 X78.55 Y62.692 E26.0958
G1 X80.76 Y61.434 E26.21421
G1 X82.883 Y60.143 E26.32991
G1 X85.016 Y58.763 E26.44821
G1 X87.128 Y57.31 E26.56758
G1 X89.17 Y55.82 E26.68528
G1 X91.119 Y54.322 E26.79975
G1 X91.85 Y53.799 E26.8416
G1 X92.298 Y53.504 E26.86658
G1 X93.034 Y53.059 E26.90662
G1 X93.812 Y52.638 E26.94782
G1 X94.651 Y52.238 E26.9911
G1 X95.478 Y51.894 E27.0328
G1 X96.354 Y51.578 E27.07617
G1 X97.176 Y51.329 E27.11616
G1 X98.063 Y51.107 E27.15874
G1 X98.955 Y50.929 E27.20109
G1 X99.854 Y50.798 E27.24339
G1 X100.744 Y50.713 E27.28502
G1 X101.673 Y50.67 E27.32833
G1 X102.603 Y50.659 E27.37164
G1 X161.355 Y50.658 E30.10737
G1 X162.601 Y50.678 E30.1654
G1 X163.475 Y50.726 E30.20616
G1 X164.328 Y50.816 E30.2461
G1 X165.252 Y50.958 E30.28963
G1 X166.005 Y51.112 E30.32542
G1 X166.337 Y51.189 E30.34129
G1 X166.901 Y51.339 E30.36846
G1 X167.349 Y51.471 E30.39021
G1 X167.863 Y51.637 E30.41536
G1 X168.656 Y51.928 E30.45469
G1 X169.029 Y52.079 E30.47343
G1 X169.569 Y52.316 E30.50089
G1 X170.346 Y52.697 E30.54119
G1 X171.142 Y53.136 E30.58352
G1 X171.896 Y53.601 E30.62477
G1 X172.629 Y54.104 E30.66616
G1 X173.338 Y54.644 E30.70766
G1 X174.048 Y55.244 E30.75094
G1 X174.332 Y55.503 E30.76884
G1 X174.96 Y56.115 E30.80967
G1 X175.329 Y56.503 E30.83461
G1 X175.896 Y57.15 E30.87467
G1 X176.167 Y57.482 E30.89462
G1 X176.507 Y57.921 E30.92048
G1 X177.001 Y58.615 E30.96014
G1 X177.503 Y59.397 E31.00341
G1 X177.706 Y59.743 E31.02209
G1 X178.108 Y60.482 E31.06127
G1 X178.342 Y60.954 E31.0858
G1 X178.834 Y62.014 E31.14021
G1 X179.965 Y64.365 E31.26169
G1 X181.112 Y66.59 E31.37825
G1 X182.345 Y68.824 E31.49707
G1 X183.632 Y71.001 E31.61483
G1 X184.968 Y73.131 E31.73191
G1 X186.385 Y75.247 E31.85049
G1 X187.53 Y76.87 E31.94298
G1 X188.036 Y77.662 E31.98674
G1 X188.454 Y78.462 E32.02877
G1 X188.827 Y79.361 E32.07409
G1 X189.107 Y80.257 E32.1178
G1 X189.307 Y81.174 E32.16151
G1 X189.422 Y82.07 E32.20357
G1 X189.455 Y82.648 E32.23053
G1 X189.47 Y83.296 E32.26071
G1 X189.469 Y171.376 E36.36208
G1 X189.458 Y172.12 E36.39673
G1 X189.403 Y173.057 E36.44044
G1 X189.264 Y173.985 E36.48413
G1 X189.043 Y174.898 E36.52787
G1 X188.743 Y175.787 E36.57156
G1 X188.366 Y176.646 E36.61524
G1 X187.914 Y177.468 E36.65892
G1 X187.391 Y178.248 E36.70265
G1 X186.825 Y178.951 E36.74468
G1 X186.148 Y179.653 E36.79009
G1 X185.44 Y180.267 E36.83373
G1 X184.679 Y180.817 E36.87745
G1 X183.903 Y181.28 E36.91952
G1 X183.027 Y181.703 E36.96482
G1 X182.148 Y182.034 E37.00856
G1 X181.244 Y182.285 E37.05224
G1 X180.317 Y182.456 E37.09614
G1 X179.181 Y182.552 E37.14922
G1 X178.54 Y182.566 E37.17908
G1 X90.411 Y182.565 E41.28273
G1 X89.69 Y182.553 E41.31631
G1 X88.754 Y182.496 E41.35998
G1 X87.826 Y182.355 E41.40368
G1 X86.914 Y182.133 E41.44739
G1 X86.021 Y181.83 E41.4913
G1 X85.015 Y181.376 E41.54269
G1 X82.805 Y180.231 E41.65859
G1 X80.552 Y179.136 E41.77523
G1 X78.255 Y178.1 E41.89257
G1 X75.893 Y177.113 E42.01177
G1 X73.53 Y176.204 E42.12966
G1 X71.164 Y175.371 E42.24646
G1 X68.743 Y174.594 E42.36485
G1 X66.331 Y173.893 E42.48181
G1 X63.877 Y173.256 E42.59987
G1 X61.396 Y172.686 E42.71841
G1 X58.935 Y172.193 E42.83528
G1 X56.453 Y171.769 E42.95252
G1 X53.896 Y171.406 E43.07278
G1 X51.759 Y171.156 E43.17297
G1 X51.156 Y171.074 E43.2013
G1 X50.268 Y170.913 E43.24333
G1 X49.037 Y170.555 E43.30302
G1 X48.183 Y170.243 E43.34536
G1 X47.551 Y169.991 E43.37704
G1 X46.675 Y169.593 E43.42184
G1 X45.614 Y168.976 E43.479
G1 X44.915 Y168.504 E43.51827
G1 X44.329 Y168.085 E43.55181
G1 X43.588 Y167.504 E43.59566
G1 X42.815 Y166.769 E43.64533
G1 X42.232 Y166.138 E43.68533
G1 X41.67 Y165.487 E43.72538
G1 X41.11 Y164.778 E43.76745
G1 X40.425 Y163.702 E43.82684
G1 X39.998 Y162.914 E43.86857
G1 X39.667 Y162.258 E43.90279
G1 X39.279 Y161.396 E43.94681
G1 X38.894 Y160.231 E44.00394
G1 X38.693 Y159.453 E44.04136
G1 X38.519 Y158.699 E44.07739
G1 X38.356 Y157.827 E44.11869
G1 X38.193 Y156.689 E44.17223
G1 X37.785 Y154.107 E44.29395
G1 X37.318 Y151.604 E44.41251
G1 X36.786 Y149.144 E44.5297
G1 X36.19 Y146.721 E44.64589
G1 X35.504 Y144.245 E44.76553
G1 X34.766 Y141.843 E44.88253
G1 X33.951 Y139.435 E45.00091
G1 X33.07 Y137.054 E45.11912
G1 X32.14 Y134.747 E45.23495
G1 X31.127 Y132.422 E45.35304
G1 X30.789 Y131.714 E45.38957
G1 X30.669 Y131.432 E45.40384
G1 X29.678 Y129.29 E45.51374
G1 X29.207 Y128.075 E45.57442
G1 X29.026 Y127.503 E45.60235
G1 X28.78 Y126.573 E45.64715
G1 X28.719 Y126.289 E45.66067
G1 X28.578 Y125.482 E45.69882
G1 X28.478 Y124.739 E45.73373
G1 X28.395 Y123.809 E45.77721
G1 X28.386 Y123.133 E45.80869
G1 X28.397 Y122.594 E45.83379
G1 X28.466 Y121.583 E45.88098
G1 X28.548 Y120.889 E45.91352
G1 X28.728 Y119.833 E45.9634
G1 X29.39 Y116.862 E46.10513
G1 X29.876 Y114.379 E46.22294
G1 X30.288 Y111.896 E46.34014
G1 X30.629 Y109.414 E46.4568
G1 X30.906 Y106.865 E46.57619
G1 X31.11 Y104.319 E46.69513
G1 X31.237 Y101.84 E46.81071
G1 X31.296 Y99.305 E46.92878
G1 X31.284 Y96.754 E47.04757
G1 X31.199 Y94.261 E47.16372
G1 X31.04 Y91.673 E47.28446
G1 X30.915 Y90.198 E47.35338
G1 X30.882 Y89.645 E47.37918
G1 X30.863 Y89.026 E47.40802
G1 X30.878 Y88.057 E47.45314
G1 X30.913 Y87.495 E47.47936
G1 X31.085 Y86.154 E47.54232
G1 X31.192 Y85.605 E47.56836
G1 X31.366 Y84.843 E47.60476
G1 X31.586 Y84.075 E47.64196
G1 X31.912 Y83.168 E47.68684
G1 X32.142 Y82.61 E47.71494
G1 X32.409 Y82.017 E47.74522
G1 X32.551 Y81.726 E47.7603
G1 X32.982 Y80.932 E47.80237
G1 X33.265 Y80.487 E47.82692
G1 X33.726 Y79.799 E47.86549
G1 X34.457 Y78.836 E47.92178
G1 X34.844 Y78.385 E47.94945
G1 X35.481 Y77.705 E47.99284
G1 X35.903 Y77.316 E48.01957
G1 X36.436 Y76.85 E48.05253
G1 X37.32 Y76.159 E48.10478
G1 X37.75 Y75.859 E48.12919
G1 X38.673 Y75.282 E48.17988
G1 X39.155 Y75.015 E48.20554
G0 F6000 X39.349 Y75.365
G1 F1200 X40.498 Y74.82 E48.26475
G1 X41.087 Y74.584 E48.2943
G1 X41.94 Y74.285 E48.33639
G1 X42.516 Y74.13 E48.36416
G1 X43.288 Y73.946 E48.40112
G1 X44.436 Y73.741 E48.45542
G1 X47.578 Y73.363 E48.60278
G1 X50.065 Y72.987 E48.7199
G1 X52.587 Y72.534 E48.83921
G1 X55.038 Y72.021 E48.95581
G1 X57.55 Y71.42 E49.07609
G1 X59.963 Y70.769 E49.19246
G1 X62.42 Y70.033 E49.31189
G1 X64.817 Y69.239 E49.42947
G1 X67.221 Y68.367 E49.54855
G1 X69.597 Y67.428 E49.66751
G1 X71.918 Y66.435 E49.78506
G1 X74.213 Y65.373 E49.90281
G1 X76.488 Y64.244 E50.02108
G1 X78.748 Y63.04 E50.14031
G1 X80.958 Y61.782 E50.25872
G1 X83.091 Y60.485 E50.37497
G1 X85.243 Y59.093 E50.49431
G1 X87.355 Y57.64 E50.61368
G1 X89.406 Y56.143 E50.73191
G1 X91.352 Y54.647 E50.84621
G1 X92.07 Y54.133 E50.88733
G1 X92.505 Y53.846 E50.91159
G1 X93.224 Y53.411 E50.95072
G1 X93.985 Y52.999 E50.99102
G1 X94.805 Y52.607 E51.03334
G1 X95.614 Y52.27 E51.07415
G1 X96.47 Y51.961 E51.11652
G1 X97.274 Y51.717 E51.15565
G1 X98.141 Y51.499 E51.19727
G1 X99.013 Y51.325 E51.23868
G1 X99.892 Y51.196 E51.28005
G1 X100.763 Y51.113 E51.32079
G1 X101.678 Y51.07 E51.36344
G1 X102.603 Y51.059 E51.40652
G1 X161.349 Y51.058 E54.14198
G1 X162.579 Y51.077 E54.19926
G1 X163.433 Y51.124 E54.23908
G1 X164.267 Y51.211 E54.27813
G1 X165.172 Y51.35 E54.32076
G1 X165.914 Y51.501 E54.35602
G1 X166.234 Y51.576 E54.37133
G1 X166.788 Y51.723 E54.39802
G1 X167.226 Y51.852 E54.41928
G1 X167.725 Y52.013 E54.44369
G1 X168.506 Y52.299 E54.48242
G1 X168.869 Y52.446 E54.50066
G1 X169.393 Y52.675 E54.52728
G1 X170.153 Y53.047 E54.56669
G1 X170.932 Y53.476 E54.6081
G1 X171.67 Y53.931 E54.64847
G1 X172.387 Y54.422 E54.68893
G1 X173.08 Y54.95 E54.7295
G1 X173.779 Y55.54 E54.77209
G1 X174.053 Y55.789 E54.78933
G1 X174.67 Y56.391 E54.82947
G1 X175.028 Y56.767 E54.85365
G1 X175.586 Y57.403 E54.89304
G1 X175.851 Y57.727 E54.91253
G1 X176.181 Y58.153 E54.93763
G1 X176.664 Y58.831 E54.97639
G1 X177.158 Y59.6 E55.01895
G1 X177.355 Y59.934 E55.037
G1 X177.75 Y60.66 E55.07549
G1 X177.979 Y61.122 E55.0995
G1 X178.471 Y62.182 E55.15391
G1 X179.609 Y64.548 E55.27617
G1 X180.756 Y66.773 E55.39273
G1 X182.001 Y69.027 E55.51263
G1 X183.293 Y71.214 E55.63091
G1 X184.63 Y73.344 E55.74801
G1 X186.058 Y75.478 E55.86757
G1 X187.193 Y77.086 E55.95922
G1 X187.681 Y77.847 E56.00132
G1 X188.099 Y78.647 E56.04335
G1 X188.445 Y79.481 E56.08539
G1 X188.716 Y80.343 E56.12747
G1 X188.91 Y81.225 E56.16952
G1 X189.025 Y82.121 E56.21158
G1 X189.055 Y82.657 E56.23658
G1 X189.07 Y83.296 E56.26634
G1 X189.069 Y171.37 E60.36744
